src/actions/symbolic/zoom-out-symbolic.svg

<svg width="16" height="16" version="1.1" xmlns="http://www.w3.org/2000/svg">
 <path d="m7.4629 1a7.5 7.5 0 0 0-7.4629 7.5 7.5 7.5 0 0 0 7.5 7.5 7.5 7.5 0 0 0 7.5-7.5 7.5 7.5 0 0 0-7.5-7.5 7.5 7.5 0 0 0-0.037109 0zm0.037109 1a6.5 6.5 0 0 1 6.5 6.5 6.5 6.5 0 0 1-6.5 6.5 6.5 6.5 0 0 1-6.5-6.5 6.5 6.5 0 0 1 6.5-6.5z" fill="currentColor" stroke-linecap="round" stroke-linejoin="round" stroke-width="1.0016"/>
 <path d="m4 8h7v1h-7z" fill="currentColor" stroke-linecap="round" stroke-linejoin="round" stroke-width="1.0016"/>
</svg>

<svg xmlns="http://www.w3.org/2000/svg" width="16" height="16"><path fill="currentColor" d="M7.463 1A7.5 7.5 0 0 0 0 8.5 7.5 7.5 0 0 0 7.5 16 7.5 7.5 0 0 0 15 8.5 7.5 7.5 0 0 0 7.5 1zM7.5 2A6.5 6.5 0 0 1 14 8.5 6.5 6.5 0 0 1 7.5 15 6.5 6.5 0 0 1 1 8.5 6.5 6.5 0 0 1 7.5 2"/><path fill="currentColor" d="M4 8h7v1H4z"/></svg>
